packages/components/src/reaction_icon_bubble/images/thankyou.svg

<?xml version="1.0" encoding="UTF-8"?>
<svg width="20px" height="20px" viewBox="0 0 20 20" version="1.1" xmlns="http://www.w3.org/2000/svg" xmlns:xlink="http://www.w3.org/1999/xlink">
    <title>02 Icons/Reactions/Thanks/20x20</title>
    <g id="02-Icons/Reactions/Thanks/20x20" stroke="none" stroke-width="1" fill="none" fill-rule="evenodd">
        <g>
            <circle id="Oval" stroke="#FFFFFF" fill="#A9D12C" fill-rule="nonzero" cx="10" cy="10" r="10.5"></circle>
            <rect id="Rectangle" stroke="#FFFFFF" stroke-width="0.75" stroke-linecap="round" stroke-linejoin="round" x="4.028" y="7.8256" width="3.0926" height="7.758" rx="0.1211"></rect>
            <path d="M7.1206,8.8227 L7.4506,8.8227 L9.56,5.766 L10.1511,2.766 C10.5511,2.3631 11.8081,3.066 11.8081,4.3107 C11.7628527,5.39895447 11.6341751,6.48213337 11.4232,7.5507 L15.152,7.5507 C15.7029772,7.55229251 16.1492523,7.99852292 16.1509,8.5495 L16.1509,8.5495 C16.1493072,9.10051614 15.7030161,9.54680722 15.152,9.5484 L15.0488,9.5484 C15.5997772,9.54999251 16.0460523,9.99622292 16.0477,10.5472 L16.0477,10.5472 C16.0461072,11.0982161 15.5998161,11.5445072 15.0488,11.5461 L14.6108,11.5461 C15.1618161,11.5476928 15.6081072,11.9939839 15.6097,12.545 L15.6097,12.545 C15.6080523,13.0959771 15.1617772,13.5422075 14.6108,13.5438 L14.1989,13.5438 C14.7499161,13.5453928 15.1962072,13.9916839 15.1978,14.5427 L15.1978,14.5427 C15.1961523,15.0936771 14.7498772,15.5399075 14.1989,15.5415 L9.07,15.5415 L7.12,14.6189" id="Path" fill="#FFFFFF" fill-rule="nonzero"></path>
        </g>
    </g>
</svg>

<svg xmlns="http://www.w3.org/2000/svg" width="22" height="22" viewBox="0 0 22 22">
    <g fill="none" fill-rule="evenodd">
        <g>
            <g transform="translate(-25 -15) translate(26 16)">
                <circle cx="10" cy="10" r="10.5" fill="#A9D12C" fill-rule="nonzero" stroke="#FFF"/>
                <rect width="3.093" height="7.758" x="4.028" y="7.826" stroke="#FFF" stroke-linecap="round" stroke-linejoin="round" stroke-width=".75" rx=".121"/>
                <path fill="#FFF" fill-rule="nonzero" d="M7.12 8.823h.33l2.11-3.057.591-3c.4-.403 1.657.3 1.657 1.545-.045 1.088-.174 2.171-.385 3.24h3.729c.551.001.997.448.999.998-.002.552-.448.998-.999 1h-.103c.55.001.997.447.999.998-.002.551-.448.998-1 1h-.437c.55 0 .997.447.999.998-.002.551-.448.997-1 .999H14.2c.55.001.997.448.999.999-.002.55-.448.997-1 .998H9.07l-1.95-.922"/>
            </g>
        </g>
    </g>
</svg>
